X: 1
T: Lovely Molly
M: 4/4
L: 1/8
R: reel
K: Dmaj
BAFE D2AD|(3Bcd AD Bdef|dBAF DEFA|BDAF FE~E2:|
Beed BcdA|(3Bcd ef gfed|Beed B2AF|BDAF FEEA|
Beed BcdA|(3Bcd ef g2fg|afge fdec|dBAF FEEA|
